icons-mns/wifi-station.svg

<svg height="1em" width="auto" viewBox="0 0 105 105" fill="currentColor" xmlns="http://www.w3.org/2000/svg">
<path d="M80.2633 20.9961C69.4668 12.9527 56.316 8.6024 42.798 8.6024C29.28 8.6024 16.1292 12.9527 5.33263 20.9961C4.78297 21.3929 4.10412 21.5743 3.42715 21.5053C2.75018 21.4362 2.12308 21.1216 1.66691 20.6222C1.21074 20.1229 0.957837 19.4741 0.957033 18.8011C0.956229 18.1282 1.20758 17.4788 1.66255 16.9784C22.8092 -5.65945 62.8305 -5.65945 83.9771 16.9784C84.4004 17.4796 84.6273 18.1147 84.6164 18.7676C84.6056 19.4206 84.3576 20.0479 83.9179 20.5351C83.4781 21.0223 82.8759 21.3369 82.221 21.4216C81.5661 21.5062 80.9023 21.3552 80.3507 20.9961H80.2633Z"/>
<path d="M56.6264 47.0464C52.3927 44.7463 47.6504 43.5146 42.82 43.4607C37.9306 43.5296 33.1319 44.7751 28.8387 47.0896C28.1781 47.4213 27.4114 47.4803 26.7069 47.2535C26.0024 47.0267 25.4177 46.5327 25.0813 45.88C24.8947 45.4475 24.8209 44.9756 24.8667 44.5076C24.9125 44.0396 25.0764 43.5905 25.3434 43.2014C27.4278 40.6059 30.0882 38.5195 33.1187 37.1036C36.1492 35.6877 39.4686 34.9804 42.82 35.0363C46.1713 34.9804 49.4907 35.6877 52.5212 37.1036C55.5518 38.5195 58.2122 40.6059 60.2965 43.2014C60.6841 43.7103 60.8821 44.3359 60.8571 44.9724C60.832 45.609 60.5854 46.2174 60.159 46.695C59.7326 47.1725 59.1525 47.4898 58.5168 47.5932C57.8811 47.6966 57.2288 47.5797 56.6701 47.2624L56.6264 47.0464Z" />
<path d="M69.078 34.5617C61.4872 29.0188 52.2994 26.0278 42.8631 26.0278C33.4268 26.0278 24.2391 29.0188 16.6483 34.5617C16.1052 34.9276 15.4476 35.0892 14.7944 35.0175C14.1412 34.9457 13.5356 34.6451 13.087 34.1702C12.6384 33.6954 12.3764 33.0774 12.3484 32.4282C12.3205 31.7789 12.5284 31.1412 12.9345 30.6303C16.6509 26.4097 21.2448 23.0321 26.4025 20.7282C31.5601 18.4243 37.16 17.2484 42.8194 17.2809C48.5016 17.2522 54.1234 18.4335 59.3027 20.7444C64.482 23.0554 69.0975 26.4418 72.8354 30.6735C73.2721 31.1846 73.503 31.8369 73.4842 32.5057C73.4654 33.1745 73.198 33.8131 72.7332 34.2994C72.2685 34.7856 71.6388 35.0856 70.9646 35.142C70.2903 35.1983 69.6187 35.0071 69.078 34.6049V34.5617Z" />
<path d="M42.8201 66.356C41.5225 66.3675 40.251 65.9952 39.1689 65.287C38.0868 64.5788 37.2434 63.567 36.747 62.3815C36.2699 61.188 36.1339 59.8877 36.3538 58.6229C36.6265 57.3616 37.264 56.2059 38.1889 55.2963C39.0946 54.3948 40.25 53.7785 41.5094 53.5251C42.7816 53.2816 44.0981 53.414 45.2947 53.9057C46.4912 54.3975 47.5149 55.2267 48.2379 56.29C48.9712 57.3458 49.3669 58.595 49.3738 59.8758C49.3723 61.5939 48.6808 63.241 47.4514 64.4552C46.2182 65.6629 44.5558 66.3452 42.8201 66.356Z"/>
</svg>

<svg xmlns="http://www.w3.org/2000/svg" width="auto" height="1em" fill="currentColor" viewBox="0 0 105 105">
    <path d="M80.263 20.996C69.467 12.953 56.316 8.602 42.798 8.602s-26.669 4.35-37.465 12.394a2.776 2.776 0 0 1-3.666-.374 2.7 2.7 0 0 1-.71-1.82c0-.674.25-1.323.706-1.824 21.146-22.637 61.168-22.637 82.314 0a2.7 2.7 0 0 1-.06 3.557 2.78 2.78 0 0 1-3.567.461zm-23.637 26.05a29.6 29.6 0 0 0-13.806-3.585 30.4 30.4 0 0 0-13.981 3.629c-.66.331-1.428.39-2.132.163a2.8 2.8 0 0 1-1.626-1.373 2.78 2.78 0 0 1 .262-2.679 21.8 21.8 0 0 1 7.776-6.097 22.05 22.05 0 0 1 9.701-2.068c3.351-.056 6.67.652 9.701 2.068a21.8 21.8 0 0 1 7.776 6.097 2.744 2.744 0 0 1-.138 3.494 2.82 2.82 0 0 1-3.489.567z"/>
    <path d="M69.078 34.562a44.46 44.46 0 0 0-26.215-8.534 44.46 44.46 0 0 0-26.215 8.534 2.78 2.78 0 0 1-3.561-.392 2.7 2.7 0 0 1-.152-3.54 39.3 39.3 0 0 1 13.468-9.902 39.7 39.7 0 0 1 16.416-3.447 40 40 0 0 1 16.484 3.463 39.6 39.6 0 0 1 13.532 9.93 2.703 2.703 0 0 1-.102 3.625 2.775 2.775 0 0 1-3.655.306zM42.82 66.356a6.56 6.56 0 0 1-3.651-1.069 6.45 6.45 0 0 1-2.422-2.906 6.93 6.93 0 0 1-.393-3.758 6.63 6.63 0 0 1 1.835-3.327 6.53 6.53 0 0 1 3.32-1.77 6.67 6.67 0 0 1 3.786.38 6.6 6.6 0 0 1 2.943 2.384 6.34 6.34 0 0 1 1.136 3.586 6.44 6.44 0 0 1-1.923 4.58 6.68 6.68 0 0 1-4.63 1.9"/>
</svg>
